X: 1
T:Blue Bells of Scotland
M:4/4
C:
S:Seabright
N:
A:Adderbury
O:English
R:Reel
%P:Ch.(AB)$^7$B
P:A.(AB)7B
K:G
I:speed 400
P:A
%
|: d2 | g4    f2  e2 | d4    e2  fg  | B2     B2   c2  A2  | G6    :|
w: Oh   where and oh   where has my_   high-  land lad-die   gone?
w: He's gone  to  the  war   with his_ bright red  knick-ers on!
P:B
   dc | B2 G2 B2  d2 | g2 g2 e2  fg  | f2     d2   e2 ^c2  | d4 e2 \
   f2 | g2 g2 f2  e2 | d2 d2 e2  fg  | B2     B2   c2  A2  | G6    ||
